X:1
T:Title
%%score { ( 1 3 ) | ( 2 4 ) }
L:1/8
M:6/8
K:Eb
V:1 treble nm="Grand Piano"
V:3 treble 
V:2 bass 
V:4 bass 
V:1
 z3 z2[Q:1/4=100] [GB] | [Ge]2 [Ge] edc | B2 G B2 [Ec] | [EB]2 [B,EG] E-[EG][CDA] | %4
[M:5/8] [B,EG]-[B,EG]- [B,EG]3 |[M:1/8] [B,GB] |[M:3/4] [Ge]2 [Ge]e dc | B2 G [FB]2 [Gc] | %8
 [Fd]2 [=Ed]c dc |[M:5/8] [DB]-[DB]- [DB]3 |[M:1/8] [DB] |[M:3/4] z2 z F z2 | B2 BE FE | %13
 z2 z A z2 |[M:5/8] G-G- G3 |[M:1/8] [=B,FG] |[M:3/4] [Ee]2 [Ge] d2 c | B2 B B2 A | %18
 [B,DG]2 [A,DF][A,F] G[A,DF] |[M:5/8] [G,E]-[G,E]- [G,E]3 |] %20
V:2
 z3 z2 [E,B,] | [E,B,]2 [E,B,] [E,C]2 [F,A,D] | [G,E]2 [E,B,E] [E,G,E]2 [=A,,_G,] | %3
 [B,,G,]2 B,, z B,B,, |[M:5/8] E,-E,- E,3 |[M:1/8] E, |[M:3/4] [E,B,]2 [E,B,] [F,A,]2 [F,A,D] | %7
 [G,E]2 [E,B,E] [D,B,]2 [=E,B,] | [F,B,]2 [G,B,] [C,B,]2 [F,=A,E] | %9
[M:5/8] [B,,B,]-[B,,B,]- [B,,B,]3 |[M:1/8] [B,,B,] |[M:3/4] [B,,A,]2 .[B,,A,]2 GB,, | %12
 [E,G,_D]2 [E,G,D] [A,C]2 [G,A,C] | [F,A,C]2 .[F,A,C]2 GB,, |[M:5/8] E,3 D,2 |[M:1/8] D, | %16
[M:3/4] [C,C]2 [E,C][K:treble] [G,=B,F]2 [A,CE] | [F,A,D]2 [F,A,D] [=E,G,_D]2 [F,A,C] | %18
 B,,2 .B,,2 B,B,, |[M:5/8] E,-E,- E,3 |] %20
V:3
 x6 | z3 .A3 | x6 | z3 .[A,F]3 |[M:5/8] x5 |[M:1/8] x |[M:3/4] z2 z .A3 | x6 | z2 z .=E3 | %9
[M:5/8] x5 |[M:1/8] x |[M:3/4] [Dc]2 [Dc] [A,D]2 [A,DF] | x6 | A2 A [B,D]2 [B,DF] | %14
[M:5/8] [B,E]3 [=B,F]2 |[M:1/8] x |[M:3/4] x6 | x6 | z2 z .D3 |[M:5/8] x5 |] %20
V:4
 x6 | x6 | x6 | z3 .B,,3 |[M:5/8] x5 |[M:1/8] x |[M:3/4] x6 | x6 | x6 |[M:5/8] x5 |[M:1/8] x | %11
[M:3/4] z2 z .B,,3 | x6 | z2 z .B,,3 |[M:5/8] x5 |[M:1/8] x |[M:3/4] x3[K:treble] x3 | x6 | %18
 z2 z .B,,3 |[M:5/8] x5 |] %20

